site/src/frontend/rounds/illegal_search/assets/bookcase/bookcase_paneling.svg

<?xml version="1.0" encoding="UTF-8" standalone="no"?>
<!-- Created with Inkscape (http://www.inkscape.org/) -->

<svg
   width="1920"
   height="1080"
   viewBox="0 0 1920 1080"
   version="1.1"
   id="svg1"
   xml:space="preserve"
   xmlns="http://www.w3.org/2000/svg"
   xmlns:svg="http://www.w3.org/2000/svg"><defs
     id="defs1" /><g
     id="layer25"
     transform="translate(-3860)"><path
       id="path1520"
       style="fill:#4b1b00;fill-opacity:1;stroke:none;stroke-width:7;stroke-linejoin:round;stroke-opacity:1"
       d="M 3860,726.53821 H 5780 V 1080 H 3860 Z" /><path
       id="rect2"
       style="fill:#4b1b00;fill-opacity:1;stroke:#814014;stroke-width:7;stroke-linejoin:round;stroke-opacity:1"
       d="M 3860,726.53821 H 5780" /><path
       id="path1508"
       style="fill:#411700;fill-opacity:1;stroke:#814014;stroke-width:7;stroke-linejoin:round;stroke-opacity:1"
       d="M 3860,750.27832 H 5780" /><path
       id="path1509"
       style="fill:#411700;fill-opacity:1;stroke:#814014;stroke-width:7;stroke-linejoin:round;stroke-opacity:1"
       d="M 3860,1026 H 5780" /><path
       id="path1515"
       style="fill:#491a00;fill-opacity:1;stroke:#814014;stroke-width:7;stroke-linejoin:round;stroke-opacity:1"
       d="m 4238.6905,774.40827 h 345.4434 V 1001.87 h -345.4434 z" /><path
       id="path1516"
       style="fill:#491a00;fill-opacity:1;stroke:#814014;stroke-width:7;stroke-linejoin:round;stroke-opacity:1"
       d="m 3860,774.40826 h 299.4434 V 1001.87 H 3860" /><path
       id="path1517"
       style="fill:#491a00;fill-opacity:1;stroke:#814014;stroke-width:7;stroke-linejoin:round;stroke-opacity:1"
       d="m 4663.381,774.40827 h 345.4434 V 1001.87 H 4663.381 Z" /><path
       id="path1518"
       style="fill:#491a00;fill-opacity:1;stroke:#814014;stroke-width:7;stroke-linejoin:round;stroke-opacity:1"
       d="m 5088.0715,774.40827 h 345.4434 V 1001.87 h -345.4434 z" /><path
       id="path1519"
       style="fill:#491a00;fill-opacity:1;stroke:#814014;stroke-width:7;stroke-linejoin:round;stroke-opacity:1"
       d="M 5780,1001.87 H 5512.762 V 774.40827 H 5780" /></g></svg>

<?xml version="1.0" encoding="UTF-8"?>
<svg width="1920" height="1080" version="1.1" viewBox="0 0 1920 1080" xml:space="preserve" xmlns="http://www.w3.org/2000/svg"><g transform="translate(-3860)"><path d="m3860 726.54h1920v353.46h-1920z" fill="#4b1b00"/><path d="m3860 726.54h1920" fill="#4b1b00" stroke="#814014" stroke-linejoin="round" stroke-width="7"/><path d="m3860 750.28h1920" fill="#411700" stroke="#814014" stroke-linejoin="round" stroke-width="7"/><path d="m3860 1026h1920" fill="#411700" stroke="#814014" stroke-linejoin="round" stroke-width="7"/><path d="m4238.7 774.41h345.44v227.46h-345.44z" fill="#491a00" stroke="#814014" stroke-linejoin="round" stroke-width="7"/><path d="m3860 774.41h299.44v227.46h-299.44" fill="#491a00" stroke="#814014" stroke-linejoin="round" stroke-width="7"/><path d="m4663.4 774.41h345.44v227.46h-345.44z" fill="#491a00" stroke="#814014" stroke-linejoin="round" stroke-width="7"/><path d="m5088.1 774.41h345.44v227.46h-345.44z" fill="#491a00" stroke="#814014" stroke-linejoin="round" stroke-width="7"/><path d="m5780 1001.9h-267.24v-227.46h267.24" fill="#491a00" stroke="#814014" stroke-linejoin="round" stroke-width="7"/></g></svg>
